public/assets/heart_filled.svg

<svg width="20" height="20" viewBox="0 0 20 20" fill="none" xmlns="http://www.w3.org/2000/svg">
<mask id="path-1-inside-1_5:256" fill="white">
<path fill-rule="evenodd" clip-rule="evenodd" d="M9.81486 2.63194C9.87691 2.69668 9.93717 2.76258 9.99563 2.82958L9.99996 2.82506L10.0043 2.82958C10.0628 2.76258 10.123 2.69668 10.1851 2.63194C12.3319 0.392016 15.8126 0.392016 17.9594 2.63194C20.1062 4.87185 20.1062 8.50348 17.9594 10.7434C17.8973 10.8081 17.8342 10.871 17.77 10.932L17.7743 10.9365L9.99996 19.048L2.22563 10.9365L2.22996 10.932C2.16575 10.871 2.10259 10.8081 2.04054 10.7434C-0.106285 8.50348 -0.106285 4.87185 2.04054 2.63194C4.18736 0.392016 7.66804 0.392016 9.81486 2.63194Z"/>
</mask>
<path fill-rule="evenodd" clip-rule="evenodd" d="M9.81486 2.63194C9.87691 2.69668 9.93717 2.76258 9.99563 2.82958L9.99996 2.82506L10.0043 2.82958C10.0628 2.76258 10.123 2.69668 10.1851 2.63194C12.3319 0.392016 15.8126 0.392016 17.9594 2.63194C20.1062 4.87185 20.1062 8.50348 17.9594 10.7434C17.8973 10.8081 17.8342 10.871 17.77 10.932L17.7743 10.9365L9.99996 19.048L2.22563 10.9365L2.22996 10.932C2.16575 10.871 2.10259 10.8081 2.04054 10.7434C-0.106285 8.50348 -0.106285 4.87185 2.04054 2.63194C4.18736 0.392016 7.66804 0.392016 9.81486 2.63194Z" fill="#EC1F44"/>
<path d="M9.99563 2.82958L8.48869 4.14454L9.92649 5.79226L11.4396 4.2134L9.99563 2.82958ZM9.81486 2.63194L8.37096 4.01582L8.37096 4.01583L9.81486 2.63194ZM9.99996 2.82506L11.4439 1.44123L9.99996 -0.0654774L8.556 1.44123L9.99996 2.82506ZM10.0043 2.82958L8.56033 4.2134L10.0734 5.79226L11.5112 4.14454L10.0043 2.82958ZM10.1851 2.63194L11.629 4.01583L11.629 4.01582L10.1851 2.63194ZM17.9594 2.63194L19.4033 1.24805L19.4033 1.24805L17.9594 2.63194ZM17.9594 10.7434L19.4033 12.1273L19.4033 12.1273L17.9594 10.7434ZM17.77 10.932L16.3925 9.48194L14.9358 10.8657L16.3262 12.316L17.77 10.932ZM17.7743 10.9365L19.2182 12.3204L20.5447 10.9364L19.2181 9.5525L17.7743 10.9365ZM9.99996 19.048L8.55606 20.4319L9.99996 21.9384L11.4439 20.4319L9.99996 19.048ZM2.22563 10.9365L0.781676 9.55269L-0.544585 10.9366L0.781732 12.3204L2.22563 10.9365ZM2.22996 10.932L3.67392 12.3158L5.06388 10.8655L3.6074 9.48195L2.22996 10.932ZM2.04054 10.7434L0.596634 12.1273L0.596637 12.1273L2.04054 10.7434ZM2.04054 2.63194L3.48444 4.01582L3.48444 4.01582L2.04054 2.63194ZM11.5026 1.51461C11.4237 1.42421 11.3424 1.33532 11.2588 1.24804L8.37096 4.01583C8.41141 4.05803 8.45065 4.10095 8.48869 4.14454L11.5026 1.51461ZM8.556 1.44123L8.55167 1.44575L11.4396 4.2134L11.4439 4.20889L8.556 1.44123ZM11.4483 1.44575L11.4439 1.44123L8.556 4.20889L8.56033 4.2134L11.4483 1.44575ZM11.5112 4.14454C11.5493 4.10095 11.5885 4.05803 11.629 4.01583L8.74116 1.24804C8.65751 1.33532 8.57623 1.42421 8.49735 1.51461L11.5112 4.14454ZM11.629 4.01582C12.9884 2.59739 15.156 2.59739 16.5155 4.01582L19.4033 1.24805C16.4691 -1.81335 11.6753 -1.81335 8.74116 1.24805L11.629 4.01582ZM16.5155 4.01582C17.9208 5.48212 17.9208 7.89321 16.5155 9.35951L19.4033 12.1273C22.2916 9.11375 22.2916 4.26158 19.4033 1.24805L16.5155 4.01582ZM16.5155 9.35951C16.475 9.40172 16.434 9.44252 16.3925 9.48194L19.1474 12.3821C19.2343 12.2995 19.3196 12.2146 19.4033 12.1273L16.5155 9.35951ZM19.2181 9.5525L19.2137 9.54799L16.3262 12.316L16.3305 12.3205L19.2181 9.5525ZM11.4439 20.4319L19.2182 12.3204L16.3304 9.55264L8.55606 17.6641L11.4439 20.4319ZM0.781732 12.3204L8.55606 20.4319L11.4439 17.6641L3.66954 9.55264L0.781732 12.3204ZM0.786006 9.54818L0.781676 9.55269L3.66959 12.3204L3.67392 12.3158L0.786006 9.54818ZM0.596637 12.1273C0.680286 12.2146 0.765608 12.2995 0.852525 12.3821L3.6074 9.48195C3.56589 9.44252 3.52488 9.40171 3.48443 9.35951L0.596637 12.1273ZM0.596634 1.24805C-2.29165 4.26158 -2.29165 9.11375 0.596634 12.1273L3.48444 9.35951C2.07908 7.89321 2.07908 5.48212 3.48444 4.01582L0.596634 1.24805ZM11.2588 1.24805C8.3246 -1.81335 3.53079 -1.81335 0.596634 1.24805L3.48444 4.01582C4.84392 2.59739 7.01148 2.59739 8.37096 4.01582L11.2588 1.24805Z" fill="#2A313C" mask="url(#path-1-inside-1_5:256)"/>
</svg>

<svg width="20" height="20" fill="none" xmlns="http://www.w3.org/2000/svg">
  <mask id="a" fill="#fff">
    <path fill-rule="evenodd" clip-rule="evenodd" d="M9.815 2.632c.062.065.122.13.18.198L10 2.825l.004.005a5.72 5.72 0 0 1 .181-.198c2.147-2.24 5.628-2.24 7.774 0 2.147 2.24 2.147 5.871 0 8.111a5.804 5.804 0 0 1-.189.189l.004.005L10 19.047l-7.774-8.111.004-.005a5.745 5.745 0 0 1-.19-.189c-2.146-2.24-2.146-5.871 0-8.111 2.147-2.24 5.628-2.24 7.775 0Z" />
  </mask>
  <path fill-rule="evenodd" clip-rule="evenodd" d="M9.815 2.632c.062.065.122.13.18.198L10 2.825l.004.005a5.72 5.72 0 0 1 .181-.198c2.147-2.24 5.628-2.24 7.774 0 2.147 2.24 2.147 5.871 0 8.111a5.804 5.804 0 0 1-.189.189l.004.005L10 19.047l-7.774-8.111.004-.005a5.745 5.745 0 0 1-.19-.189c-2.146-2.24-2.146-5.871 0-8.111 2.147-2.24 5.628-2.24 7.775 0Z" fill="#EC1F44" />
  <path d="M9.996 2.83 8.489 4.145l1.437 1.647 1.514-1.579L9.996 2.83Zm-.181-.198L8.37 4.016l1.444-1.384Zm.185.193 1.444-1.384L10-.065 8.556 1.44 10 2.825Zm.004.005L8.56 4.213l1.513 1.58 1.438-1.648-1.507-1.315Zm.181-.198 1.444 1.384-1.444-1.384Zm7.774 0 1.444-1.384-1.444 1.384Zm0 8.111 1.444 1.384-1.444-1.384Zm-.189.189-1.378-1.45-1.456 1.384 1.39 1.45 1.444-1.384Zm.004.005 1.444 1.383 1.327-1.384-1.327-1.383-1.444 1.383ZM10 19.047l-1.444 1.384L10 21.938l1.444-1.506L10 19.048Zm-7.774-8.111L.782 9.553l-1.327 1.384L.782 12.32l1.444-1.383Zm.004-.005 1.444 1.384 1.39-1.45-1.457-1.384-1.377 1.45Zm-.19-.189L.598 12.127l1.444-1.384Zm0-8.111 1.444 1.384-1.443-1.384Zm9.463-1.117c-.08-.09-.16-.18-.244-.267L8.37 4.016c.04.042.08.085.118.129l3.014-2.63ZM8.556 1.44l-.004.005 2.888 2.767.004-.004L8.556 1.44Zm2.892.005-.004-.005L8.556 4.21l.004.004 2.888-2.767Zm.063 2.699c.038-.044.078-.087.118-.13L8.741 1.249a7.734 7.734 0 0 0-.244.267l3.014 2.63Zm.118-.13c1.36-1.418 3.527-1.418 4.886 0l2.888-2.767a7.337 7.337 0 0 0-10.662 0l2.888 2.768Zm4.886 0c1.406 1.467 1.406 3.878 0 5.345l2.888 2.767c2.889-3.013 2.889-7.865 0-10.879l-2.887 2.768Zm0 5.345c-.04.042-.081.083-.123.122l2.755 2.9a7.78 7.78 0 0 0 .256-.255L16.516 9.36Zm2.703.193-.004-.005-2.888 2.768.005.004 2.887-2.768Zm-7.774 10.879 7.774-8.112-2.888-2.767-7.774 8.111 2.888 2.768ZM.782 12.32l7.774 8.112 2.888-2.768L3.67 9.553.782 12.32Zm.004-2.772-.004.005L3.67 12.32l.004-.004L.786 9.548Zm-.19 2.58c.084.087.17.171.257.254l2.754-2.9a3.703 3.703 0 0 1-.123-.122L.597 12.127Zm0-10.88c-2.888 3.014-2.888 7.866 0 10.88L3.485 9.36c-1.405-1.467-1.405-3.878 0-5.344L.597 1.248Zm10.663 0a7.337 7.337 0 0 0-10.662 0l2.887 2.768c1.36-1.419 3.527-1.419 4.887 0l2.888-2.768Z" fill="#2A313C" mask="url(#a)" />
</svg>
